X: 23047
T: Last Summer's
R: reel
M: 4/4
K: Dmajor
|:dB|"D"Ad d2 ABdf|"G"eB B2 dBAB|"D"Ad d2 ABdf|"G"edgf "A"e2:|
|:dg|"D"faaf ed d2|"G"efgf edBd|"D"Ad d2 ABdf|"G"edgf "A"e2:|

